apps/www/public/images/index/products/vector-dark.svg

<svg xmlns="http://www.w3.org/2000/svg" width="390" height="430" fill="none" viewBox="0 0 390 430"><g clip-path="url(#a)"><path stroke="#2e2e2e" stroke-width=".502" d="M279.173 650.277V275.195M117.441 650.277V275.195M198.313 696.482V321.401"/><path fill="#232323" stroke="#2e2e2e" stroke-width="1.237" d="m-227.715 468.123 423.727-248.666 423.273 250.909z" opacity=".8"/><circle cx="301.631" cy="222.602" r="1.507" fill="#707070"/><ellipse cx="326.643" cy="108.326" fill="#a0a0a0" rx="2.511" ry="2.495"/><circle cx="350.85" cy="222.602" r="2.511" fill="#707070"/><ellipse cx="89.687" cy="176.412" fill="#3fcf8e" rx="1.507" ry="1.584"/><circle cx="251.621" cy="92.292" r="1.004" fill="#a0a0a0"/><circle cx="221.696" cy="103.573" r="2.009" fill="#2e2e2e"/><ellipse cx="217.068" cy="249.2" fill="#3fcf8e" rx="1.004" ry=".984"/><circle cx="51.145" cy="187.789" r="4.018" fill="#3e3e3e"/><circle cx="326.102" cy="238.157" r="2.213" fill="#2e2e2e"/><circle cx="93.202" cy="215.212" r="2.009" fill="#2e2e2e"/><circle cx="298.62" cy="213.562" r="1.507" fill="#2e2e2e"/><circle cx="332.81" cy="267.771" r="2.511" fill="#3e3e3e"/><circle cx="213.235" cy="199.429" r="1.465" fill="#3fcf8e"/><circle cx="221.273" cy="266.826" r="4.52" fill="#707070"/><circle cx="290.08" cy="367.749" r="1.004" fill="#3fcf8e"/><circle cx="137.699" cy="139.772" r="1.507" fill="#3e3e3e"/><circle cx="84.163" cy="325.56" r="1.004" fill="#2e2e2e"/><circle cx="229.31" cy="64.901" r=".503" fill="#707070"/><ellipse cx="93.663" cy="309.991" fill="#3fcf8e" rx="2.553" ry="2.511"/><circle cx="228.305" cy="108.093" r="2.511" fill="#a0a0a0"/><circle cx="29.922" cy="256.252" r="1.004" fill="#3e3e3e"/><circle cx="140.212" cy="96.602" r="1.004" fill="#3fcf8e"/><ellipse cx="262.959" cy="36.271" fill="#3fcf8e" rx="1.004" ry="1.006"/><path fill="#fff" fill-opacity=".03" d="m195.998 125.21 80.457 46.453v95.372l-80.467 46.162-80.871-46.802v-94.984z"/><path stroke="#7e7e7e" stroke-width="1.004" d="m276.455 171.663-80.457-46.453-80.881 46.201m161.338.252v95.372l-80.467 46.162m80.467-141.534-63.615 36.56-17.164 9.954m.312 95.02-80.871-46.802v-94.984m80.871 141.786-.312-95.02m-80.559-46.766 80.559 46.766"/><path stroke="#7e7e7e" stroke-dasharray="0.5 2.01" stroke-width="1.004" d="m205.479 166.713 79.448 71.444M216.45 151.371l44.35-34.74"/><circle cx="205.482" cy="166.712" r="2.511" fill="#3fcf8e"/><circle cx="289.076" cy="240.369" r="4.146" fill="#3fcf8e"/><circle cx="140.212" cy="242.004" r="2.511" fill="#3fcf8e"/><circle cx="216.001" cy="151.754" r="2.192" fill="#3fcf8e" transform="rotate(18.032 216.001 151.754)"/><circle cx="260.8" cy="116.631" r="2.511" fill="#3fcf8e" transform="rotate(18.032 260.8 116.631)"/><path stroke="#7e7e7e" stroke-dasharray="0.5 2.01" stroke-width="1.004" d="m94.41 309.076 81.54-66.068"/><circle cx="175.95" cy="243.009" r="3.516" fill="#3fcf8e"/></g><defs><clipPath id="a"><path fill="#fff" d="M0 0h390v430H0z"/></clipPath></defs></svg>

<svg width="390" height="430" viewBox="0 0 390 430" fill="none" xmlns="http://www.w3.org/2000/svg">
<g clip-path="url(#clip0_392_3994)">
<path d="M279.173 650.277L279.173 275.195" stroke="#2E2E2E" stroke-width="0.502235"/>
<path d="M117.441 650.277L117.441 275.195" stroke="#2E2E2E" stroke-width="0.502235"/>
<path d="M198.313 696.482L198.313 321.401" stroke="#2E2E2E" stroke-width="0.502235"/>
<path opacity="0.8" d="M-227.715 468.123L196.012 219.457L619.285 470.366L-227.715 468.123Z" fill="#232323" stroke="#2E2E2E" stroke-width="1.23671"/>
<ellipse cx="301.631" cy="222.602" rx="1.50671" ry="1.5067" fill="#707070"/>
<ellipse cx="326.643" cy="108.326" rx="2.51118" ry="2.49456" fill="#A0A0A0"/>
<ellipse cx="350.85" cy="222.602" rx="2.51118" ry="2.51117" fill="#707070"/>
<ellipse cx="89.6874" cy="176.412" rx="1.50671" ry="1.58432" fill="#3FCF8E"/>
<ellipse cx="251.621" cy="92.2916" rx="1.00447" ry="1.00447" fill="#A0A0A0"/>
<ellipse cx="221.696" cy="103.573" rx="2.00894" ry="2.00894" fill="#2E2E2E"/>
<ellipse cx="217.068" cy="249.2" rx="1.00447" ry="0.984361" fill="#3FCF8E"/>
<ellipse cx="51.1448" cy="187.789" rx="4.01788" ry="4.01788" fill="#3E3E3E"/>
<ellipse cx="326.102" cy="238.157" rx="2.21297" ry="2.21297" fill="#2E2E2E"/>
<ellipse cx="93.2023" cy="215.212" rx="2.00894" ry="2.00894" fill="#2E2E2E"/>
<ellipse cx="298.62" cy="213.562" rx="1.50671" ry="1.5067" fill="#2E2E2E"/>
<ellipse cx="332.81" cy="267.771" rx="2.51118" ry="2.51117" fill="#3E3E3E"/>
<ellipse cx="213.235" cy="199.429" rx="1.46477" ry="1.46477" fill="#3FCF8E"/>
<ellipse cx="221.273" cy="266.826" rx="4.52012" ry="4.52011" fill="#707070"/>
<ellipse cx="290.08" cy="367.749" rx="1.00447" ry="1.00447" fill="#3FCF8E"/>
<ellipse cx="137.699" cy="139.772" rx="1.50671" ry="1.5067" fill="#3E3E3E"/>
<ellipse cx="84.1627" cy="325.56" rx="1.00447" ry="1.00447" fill="#2E2E2E"/>
<ellipse cx="229.31" cy="64.9007" rx="0.502531" ry="0.502531" fill="#707070"/>
<ellipse cx="93.6634" cy="309.991" rx="2.55305" ry="2.51117" fill="#3FCF8E"/>
<ellipse cx="228.305" cy="108.093" rx="2.51118" ry="2.51117" fill="#A0A0A0"/>
<ellipse cx="29.9215" cy="256.252" rx="1.00447" ry="1.00447" fill="#3E3E3E"/>
<ellipse cx="140.212" cy="96.6016" rx="1.00447" ry="1.00447" fill="#3FCF8E"/>
<ellipse cx="262.959" cy="36.2713" rx="1.00447" ry="1.00594" fill="#3FCF8E"/>
<path d="M195.998 125.21L276.455 171.663V267.035L195.988 313.197L115.117 266.395V171.411L195.998 125.21Z" fill="white" fill-opacity="0.03"/>
<path d="M276.455 171.663L195.998 125.21L115.117 171.411M276.455 171.663V267.035L195.988 313.197M276.455 171.663L212.84 208.223L195.676 218.177M195.988 313.197L115.117 266.395V171.411M195.988 313.197L195.676 218.177M115.117 171.411L195.676 218.177" stroke="#7E7E7E" stroke-width="1.00447"/>
<path d="M205.479 166.713L284.927 238.157" stroke="#7E7E7E" stroke-width="1.00447" stroke-dasharray="0.5 2.01"/>
<path d="M216.45 151.371L260.8 116.631" stroke="#7E7E7E" stroke-width="1.00447" stroke-dasharray="0.5 2.01"/>
<ellipse cx="205.482" cy="166.712" rx="2.51118" ry="2.51117" fill="#3FCF8E"/>
<ellipse cx="289.076" cy="240.369" rx="4.14553" ry="4.14552" fill="#3FCF8E"/>
<ellipse cx="140.212" cy="242.004" rx="2.51118" ry="2.51117" fill="#3FCF8E"/>
<ellipse cx="216.001" cy="151.754" rx="2.19201" ry="2.19201" transform="rotate(18.0323 216.001 151.754)" fill="#3FCF8E"/>
<ellipse cx="260.8" cy="116.631" rx="2.51118" ry="2.51117" transform="rotate(18.0323 260.8 116.631)" fill="#3FCF8E"/>
<path d="M94.4092 309.076L175.95 243.008" stroke="#7E7E7E" stroke-width="1.00447" stroke-dasharray="0.5 2.01"/>
<ellipse cx="175.95" cy="243.009" rx="3.51565" ry="3.51564" fill="#3FCF8E"/>
</g>
<defs>
<clipPath id="clip0_392_3994">
<rect width="390" height="430" fill="white"/>
</clipPath>
</defs>
</svg>
